X: 1
T: Adventspolska
C: by Olov Johansson
S: Bruce Sagan's "scanfolk" session archive
F: https://app.box.com/s/u6iiren0igvsukrhdducy7orq72jayq8/file/789753994193
D: https://www.youtube.com/watch?v=NSeraMfUrOQ
R: pols
Z: 2021 John Chambers <jc:trillian.mit.edu>
M: 3/4
L: 1/16
K: C
|:\
C2c2 c2B2 c4 | z2c2 d2f2 e4 | fgfd e2c2- c2c2 | dedc BcBA AG3 |
G2c2 c2B2 c4 | z2c2 d2f2 e4 | fgfd e2c2- c2c2 | B2AB c4   c4 :|
|:\
A2F2 A2B2 c2A2 | G2c2 e4 e4 | B2E2 g2E2  B2E2 | e2E2 g2e2 c2G2 |
A2F2 A2B2 c2A2 | G2c2 e4 e4 | fgfd e2c2- c2d2 | B2AB c4-  c4  :|
